X:6540
T:Green Fields of America, The
R:reel
D:Frankie Gavin: Frankie Goes to Town
D:Joe Holmes & Len Graham: Saints, Chaste Muses, Bards and Sages.
Z:id:hn-reel-150
M:C|
K:G
c2ec B2dB|AGAB AGEF|GAGE DEGB|AGAB AGEG|
c2ec B2dB|AGAB AGEF|GAGE DEGB|1 AGEF GBdB:|2 AGAB GEDE||
|:GABc d2Bd|efge dBGB|c2ec B2dB|AGAB AGED|1 GABc d2Bd|efge dBGB|
c2ec B2dB|AGAB GEDE:|2 gfgf efge|d2BG AGEF|GAGE DGBe|dBAB GBdB||
